X: 15735
T: Goldenrod, The
R: jig
M: 6/8
K: Dmajor
f3 fdB|ABA DFA|dcd bfa|g3 gfa|g3 gec|
Ace gfg|fce dAG|F3 FAd|f3 fce|
dAF DFA|dcd bfa|g3 gfa|g3 gfa|
gec Ace|aba ABc|d3 d2e|f3 fdB|
ABA DFA|dcd bfa|g3 gfa|g3 gec|
Ace gfg|fce dAG|F3 FAd|f3 fce|
dAF DFA|dcd bfa|g3 Bcd|e3 edf|
e2d c2B|ABA gfe|d3 DFG|A3 AFA|
dfd AFG|AFA ded|c3 E2F|G3 GFG|
e2f e2d|cBc dAG|F3 DFG|A3 AFA|
dfd AFG|AFA dA=c|B3 B2^c|d3 dcB|
Adf a2f|gec ABc|d3 DFG|A3 AFA|
dfd AFG|AFA ded|c3 E2F|G3 GFG|
e2f e2d|cBc dAG|F3 DFG|A3 AFA|
dfd AFG|AFA dA=c|B3 B2^c|d3 dcB|
Adf a2f|gec ABc|d3 d2e|

